apps-symbolic-unstable/non-symlinks/trello-symbolic.svg

<svg xmlns="http://www.w3.org/2000/svg" width="16" height="16" version="1.1">
 <path fill="#ececec" opacity="1.0" fill-rule="evenodd" d="M 10.465 0.533 C 15.308 0.533 16 1.224 16 6.063 L 16 9.938 C 16 14.776 15.308 15.467 10.465 15.467 L 5.535 15.467 C 0.692 15.467 0 14.776 0 9.938 L 0 6.063 C 0 1.224 0.692 0.533 5.535 0.533 L 10.465 0.533 Z M 10.466 1.841 C 10.743 1.841 11.019 1.844 11.297 1.85 C 11.537 1.855 11.778 1.865 12.019 1.878 C 12.223 1.89 12.428 1.907 12.632 1.929 C 12.8 1.948 12.968 1.972 13.135 2.003 C 13.267 2.027 13.398 2.059 13.526 2.096 C 13.623 2.125 13.717 2.16 13.809 2.201 C 13.875 2.23 13.938 2.265 13.998 2.305 C 14.043 2.335 14.085 2.37 14.124 2.409 C 14.163 2.448 14.198 2.49 14.229 2.536 C 14.269 2.595 14.303 2.658 14.333 2.723 C 14.374 2.815 14.408 2.909 14.437 3.005 C 14.475 3.133 14.506 3.263 14.53 3.396 C 14.561 3.562 14.586 3.73 14.604 3.898 C 14.626 4.101 14.643 4.305 14.655 4.51 C 14.669 4.751 14.678 4.991 14.683 5.231 C 14.69 5.508 14.692 5.785 14.692 6.061 C 14.692 6.061 14.692 6.062 14.692 6.063 L 14.692 9.938 C 14.692 9.938 14.692 9.938 14.692 9.939 C 14.692 10.215 14.69 10.492 14.683 10.769 C 14.678 11.009 14.669 11.249 14.655 11.49 C 14.643 11.694 14.626 11.899 14.604 12.102 C 14.586 12.27 14.561 12.438 14.53 12.605 C 14.506 12.736 14.475 12.867 14.437 12.995 C 14.408 13.091 14.374 13.185 14.333 13.277 C 14.303 13.342 14.269 13.405 14.229 13.465 C 14.198 13.51 14.163 13.552 14.124 13.591 C 14.085 13.629 14.043 13.665 13.998 13.695 C 13.938 13.735 13.875 13.77 13.809 13.799 C 13.717 13.841 13.623 13.875 13.526 13.903 C 13.398 13.941 13.267 13.973 13.135 13.997 C 12.968 14.028 12.8 14.053 12.632 14.071 C 12.428 14.093 12.223 14.11 12.019 14.122 C 11.778 14.136 11.537 14.145 11.297 14.15 C 11.019 14.156 10.743 14.159 10.466 14.158 C 10.466 14.158 10.465 14.158 10.465 14.158 L 5.536 14.158 C 5.535 14.158 5.534 14.158 5.534 14.158 C 5.257 14.159 4.98 14.156 4.703 14.15 C 4.462 14.145 4.222 14.136 3.981 14.122 C 3.776 14.11 3.572 14.093 3.368 14.071 C 3.2 14.053 3.031 14.028 2.865 13.997 C 2.733 13.973 2.602 13.941 2.474 13.903 C 2.377 13.875 2.283 13.841 2.191 13.799 C 2.125 13.77 2.062 13.735 2.003 13.695 C 1.957 13.665 1.914 13.629 1.876 13.591 C 1.837 13.552 1.803 13.51 1.772 13.465 C 1.732 13.405 1.697 13.342 1.667 13.277 C 1.626 13.185 1.591 13.091 1.563 12.995 C 1.525 12.867 1.494 12.736 1.47 12.605 C 1.439 12.438 1.414 12.27 1.396 12.102 C 1.374 11.899 1.357 11.694 1.345 11.49 C 1.331 11.249 1.322 11.009 1.317 10.769 C 1.311 10.492 1.308 10.215 1.308 9.939 C 1.308 9.938 1.308 9.938 1.308 9.938 L 1.308 6.063 C 1.308 6.062 1.308 6.061 1.308 6.061 C 1.308 5.785 1.311 5.508 1.317 5.231 C 1.322 4.991 1.331 4.751 1.345 4.51 C 1.357 4.305 1.374 4.101 1.396 3.898 C 1.414 3.73 1.439 3.562 1.47 3.396 C 1.494 3.263 1.525 3.133 1.563 3.005 C 1.591 2.909 1.626 2.815 1.667 2.723 C 1.697 2.658 1.732 2.595 1.772 2.536 C 1.803 2.49 1.837 2.448 1.876 2.409 C 1.914 2.37 1.957 2.335 2.003 2.305 C 2.062 2.265 2.125 2.23 2.191 2.201 C 2.283 2.16 2.377 2.125 2.474 2.096 C 2.602 2.059 2.733 2.027 2.865 2.003 C 3.031 1.972 3.2 1.948 3.368 1.929 C 3.572 1.907 3.776 1.89 3.981 1.878 C 4.222 1.865 4.462 1.855 4.703 1.85 C 4.98 1.844 5.257 1.841 5.534 1.841 C 5.534 1.841 5.535 1.841 5.536 1.841 L 10.465 1.842 C 10.465 1.842 10.466 1.841 10.466 1.841 Z"/>
 <path fill="#ececec" opacity="0.6" fill-rule="evenodd" d="m 4.231,3.221 h 2.042 c 0.541,0 0.981,0.439 0.981,0.981 v 6.046 c 0,0.541 -0.44,0.981 -0.981,0.981 H 4.231 c -0.542,0 -0.981,-0.44 -0.981,-0.981 V 4.202 C 3.25,3.66 3.689,3.221 4.231,3.221 Z m 5.268,0 h 2.253 c 0.541,0 0.981,0.439 0.981,0.981 v 2.252 c 0,0.542 -0.44,0.981 -0.981,0.981 H 9.499 C 8.958,7.435 8.518,6.996 8.518,6.454 V 4.202 c 0,-0.542 0.44,-0.981 0.981,-0.981 z"/>
</svg>

<svg xmlns="http://www.w3.org/2000/svg" width="16" height="16" version="1.1">
  <path fill="#ececec" fill-rule="evenodd" d="M 10.465 0.533 C 15.308 0.533 16 1.224 16 6.063 L 16 9.938 C 16 14.776 15.308 15.467 10.465 15.467 L 5.535 15.467 C 0.692 15.467 0 14.776 0 9.938 L 0 6.063 C 0 1.224 0.692 0.533 5.535 0.533 L 10.465 0.533 Z M 10.466 1.841 C 10.743 1.841 11.019 1.844 11.297 1.85 C 11.537 1.855 11.778 1.865 12.019 1.878 C 12.223 1.89 12.428 1.907 12.632 1.929 C 12.8 1.948 12.968 1.972 13.135 2.003 C 13.267 2.027 13.398 2.059 13.526 2.096 C 13.623 2.125 13.717 2.16 13.809 2.201 C 13.875 2.23 13.938 2.265 13.998 2.305 C 14.043 2.335 14.085 2.37 14.124 2.409 C 14.163 2.448 14.198 2.49 14.229 2.536 C 14.269 2.595 14.303 2.658 14.333 2.723 C 14.374 2.815 14.408 2.909 14.437 3.005 C 14.475 3.133 14.506 3.263 14.53 3.396 C 14.561 3.562 14.586 3.73 14.604 3.898 C 14.626 4.101 14.643 4.305 14.655 4.51 C 14.669 4.751 14.678 4.991 14.683 5.231 C 14.69 5.508 14.692 5.785 14.692 6.061 C 14.692 6.061 14.692 6.062 14.692 6.063 L 14.692 9.938 C 14.692 9.938 14.692 9.938 14.692 9.939 C 14.692 10.215 14.69 10.492 14.683 10.769 C 14.678 11.009 14.669 11.249 14.655 11.49 C 14.643 11.694 14.626 11.899 14.604 12.102 C 14.586 12.27 14.561 12.438 14.53 12.605 C 14.506 12.736 14.475 12.867 14.437 12.995 C 14.408 13.091 14.374 13.185 14.333 13.277 C 14.303 13.342 14.269 13.405 14.229 13.465 C 14.198 13.51 14.163 13.552 14.124 13.591 C 14.085 13.629 14.043 13.665 13.998 13.695 C 13.938 13.735 13.875 13.77 13.809 13.799 C 13.717 13.841 13.623 13.875 13.526 13.903 C 13.398 13.941 13.267 13.973 13.135 13.997 C 12.968 14.028 12.8 14.053 12.632 14.071 C 12.428 14.093 12.223 14.11 12.019 14.122 C 11.778 14.136 11.537 14.145 11.297 14.15 C 11.019 14.156 10.743 14.159 10.466 14.158 C 10.466 14.158 10.465 14.158 10.465 14.158 L 5.536 14.158 C 5.535 14.158 5.534 14.158 5.534 14.158 C 5.257 14.159 4.98 14.156 4.703 14.15 C 4.462 14.145 4.222 14.136 3.981 14.122 C 3.776 14.11 3.572 14.093 3.368 14.071 C 3.2 14.053 3.031 14.028 2.865 13.997 C 2.733 13.973 2.602 13.941 2.474 13.903 C 2.377 13.875 2.283 13.841 2.191 13.799 C 2.125 13.77 2.062 13.735 2.003 13.695 C 1.957 13.665 1.914 13.629 1.876 13.591 C 1.837 13.552 1.803 13.51 1.772 13.465 C 1.732 13.405 1.697 13.342 1.667 13.277 C 1.626 13.185 1.591 13.091 1.563 12.995 C 1.525 12.867 1.494 12.736 1.47 12.605 C 1.439 12.438 1.414 12.27 1.396 12.102 C 1.374 11.899 1.357 11.694 1.345 11.49 C 1.331 11.249 1.322 11.009 1.317 10.769 C 1.311 10.492 1.308 10.215 1.308 9.939 C 1.308 9.938 1.308 9.938 1.308 9.938 L 1.308 6.063 C 1.308 6.062 1.308 6.061 1.308 6.061 C 1.308 5.785 1.311 5.508 1.317 5.231 C 1.322 4.991 1.331 4.751 1.345 4.51 C 1.357 4.305 1.374 4.101 1.396 3.898 C 1.414 3.73 1.439 3.562 1.47 3.396 C 1.494 3.263 1.525 3.133 1.563 3.005 C 1.591 2.909 1.626 2.815 1.667 2.723 C 1.697 2.658 1.732 2.595 1.772 2.536 C 1.803 2.49 1.837 2.448 1.876 2.409 C 1.914 2.37 1.957 2.335 2.003 2.305 C 2.062 2.265 2.125 2.23 2.191 2.201 C 2.283 2.16 2.377 2.125 2.474 2.096 C 2.602 2.059 2.733 2.027 2.865 2.003 C 3.031 1.972 3.2 1.948 3.368 1.929 C 3.572 1.907 3.776 1.89 3.981 1.878 C 4.222 1.865 4.462 1.855 4.703 1.85 C 4.98 1.844 5.257 1.841 5.534 1.841 C 5.534 1.841 5.535 1.841 5.536 1.841 L 10.465 1.842 C 10.465 1.842 10.466 1.841 10.466 1.841 Z"/>
 <path fill="#ececec" fill-rule="evenodd" d="M 4.231 3.221 L 6.273 3.221 C 6.814 3.221 7.254 3.66 7.254 4.202 L 7.254 10.248 C 7.254 10.789 6.814 11.229 6.273 11.229 L 4.231 11.229 C 3.689 11.229 3.25 10.789 3.25 10.248 L 3.25 4.202 C 3.25 3.66 3.689 3.221 4.231 3.221 Z M 9.499 3.221 L 11.752 3.221 C 12.293 3.221 12.733 3.66 12.733 4.202 L 12.733 6.454 C 12.733 6.996 12.293 7.435 11.752 7.435 L 9.499 7.435 C 8.958 7.435 8.518 6.996 8.518 6.454 L 8.518 4.202 C 8.518 3.66 8.958 3.221 9.499 3.221 Z"/>
</svg>
